X:1
T:Title
%%score { ( 1 3 ) | ( 2 4 ) }
L:1/8
M:4/4
K:F
V:1 treble nm="Grand Piano"
V:3 treble 
V:2 bass 
V:4 bass 
V:1
 z4 z2[Q:1/4=108] C>C | F2 F2 F2 F2 | F6 F>G | A2 A2 A2 B2 | A6 A>A | [Ec]2 [EG]2 [EG]2 [Ec]>[Ec] | %6
 c2 A2 A2 A>A | G2 G2 d2 d2 |[M:3/4] [Ec]6 |[M:1/4] A>B |[M:4/4] c>=B c>d c2 A2 | c6 z2 | %12
 A>_A =A>B A2 F2 |[M:5/8] A-A- A3 |[M:3/8] AG>F |[M:4/4] E2 [Ec]2 [Ec]2 [Ec]2 | [Ec]6 z2 | %17
 F2 f2 f2 d2 |[M:3/4] [Ac]6 |[M:1/4] A>B |[M:4/4] c>=B c>d c2 A2 | c6 z2 | A>_A =A>B A2 F2 | %23
[M:5/8] A-A- A3 |[M:3/8] FF>F |[M:4/4] d2 d2- dd [Ece]>[FBd] | [FAc]2 [FAc]4 [FBd]2 | %27
 [FA]4 [B,EG]4 |[M:3/4] [A,CF]6 |] %29
V:2
 z4 z2 [F,A,]>[F,A,] | [F,A,C]2 [F,A,C]2 [F,A,C]2 [F,B,D]2 | [F,A,C]6 [F,A,C]>[F,A,C] | %3
 [F,CF]2 [F,CF]2 [F,CF]2 [F,DF]2 | [F,CF]6 [F,CF]>[F,CF] | [C,C]2 [C,C]2 [C,C]2 [C,B,]>[C,B,] | %6
 [F,A,F]2 [F,CF]2 [F,CF]2 [F,CF]>[F,CF] | [G,CE]2 [G,CE]2 [G,=B,F]2 [G,B,F]2 | %8
[M:3/4][K:bass] [C,C]6 |[M:1/4] [F,CF]>[K:treble][G,B,F] | %10
[M:4/4] [F,A,F]>[F,G,F] [F,A,F]>[F,B,F][K:bass] [F,A,F]2 [F,CF]2 | F6 z2 | %12
 [F,CF]>[F,=B,F] [F,CF]>[F,DF] [F,CF]2 [F,A,C]2 |[M:5/8][K:treble] F-F- F3[K:bass] | %14
[M:3/8] A,G,>F, |[M:4/4] E,2 [C,G,]2 [C,G,]2 [C,G,]2 | [C,G,]2 C,2 C,B, A,>G, | %17
 F,2[K:treble] [F,A,F]2 [B,DF]2 [B,FB]2 |[M:3/4][K:bass] [F,F]2 F,2 F,2 | %19
[M:1/4][K:treble] [F,CF]>[G,B,F] | %20
[M:4/4] [F,A,F]>[F,G,F] [F,A,F]>[K:bass][F,B,F] [F,A,F]2 [F,CF]2 | F6 z2 | %22
 [F,CF]>[F,=B,F] [F,CF]>[F,DF] [F,CF]2 [F,A,C]2 |[M:5/8][K:treble] F-F- F3[K:bass] | %24
[M:3/8] [F,A,][F,A,]>[F,A,] |[M:4/4][K:treble] [B,F]2 [B,F]2- [B,F][B,FB] B,>[K:bass]B, | %26
 F,2 F,4 B,2 | C4 C,4 |[M:3/4] F,6 |] %29
V:3
 x8 | x8 | x8 | x8 | x8 | x8 | x8 | x8 |[M:3/4] x6 |[M:1/4] x2 |[M:4/4] x8 | z2 A,2 A,2 F>G | x8 | %13
[M:5/8] z2 C2 C |[M:3/8] x3 |[M:4/4] x8 | z2 G,2 G,B A>G | x8 |[M:3/4] z2 C2 C2 |[M:1/4] x2 | %20
[M:4/4] x8 | z2 A,2 A,2 F>G | x8 |[M:5/8] z2 C2 C |[M:3/8] x3 |[M:4/4] x8 | x8 | x8 |[M:3/4] x6 |] %29
V:4
 x8 | x8 | x8 | x8 | x8 | x8 | x8 | x8 |[M:3/4][K:bass] x6 |[M:1/4] x3/2[K:treble] x/ | %10
[M:4/4] x4[K:bass] x4 | [F,A,]2 F,2 F,2 [F,A,]>[F,B,F] | x8 | %13
[M:5/8][K:treble] [F,C]2 F,2[K:bass] F, |[M:3/8] x3 |[M:4/4] x8 | x8 | x2[K:treble] x6 | %18
[M:3/4][K:bass] x6 |[M:1/4][K:treble] x2 |[M:4/4] x7/2[K:bass] x9/2 | %21
 [F,A,]2 F,2 F,2 [F,A,]>[F,B,F] | x8 |[M:5/8][K:treble] [F,C]2 F,2[K:bass] F, |[M:3/8] x3 | %25
[M:4/4][K:treble] x15/2[K:bass] x/ | x8 | x8 |[M:3/4] x6 |] %29

